assets/icons/folder-input.svg

<?xml version="1.0" encoding="UTF-8"?>
<svg version="1.1" viewBox="0 0 32 32" xmlns="http://www.w3.org/2000/svg">
 <path d="m13.844 7.5366-1.2867-1.0724c-0.35931-0.30018-0.81234-0.46424-1.2811-0.46424h-7.2747c-1.1059 0-2.0009 0.89499-2.0009 1.9998v16.001c0 1.1037 0.89499 1.9998 2.0009 1.9998h23.998c1.1059 0 2.0009-0.8961 2.0009-1.9998v-14c0-1.106-0.89499-2.0009-2.0009-2.0009h-12.875c-0.46873-0.00111-0.92176-0.16406-1.2812-0.46313" fill="#00acc1" stroke-width="1.1159"/>
 <path d="m13.98 10c-1.0977 0-1.9805 0.9936-1.9805 2.2285v3.7715h2v-4h16v14h-16v-4h-2v3.7715c0 1.2349 0.88275 2.2285 1.9805 2.2285h16.039c1.0977 0 1.9805-0.9936 1.9805-2.2285v-13.543c0-1.2349-0.88275-2.2285-1.9805-2.2285h-16.039zm8.0198 4v4h-9.9999v2h9.9999v4l5.1211-5z" fill="#b2ebf2" stroke-width="1.0606"/>
</svg>

<svg xmlns="http://www.w3.org/2000/svg" viewBox="0 0 32 32"><path fill="#00acc1" d="m13.844 7.537-1.287-1.073A2 2 0 0 0 11.277 6H4.001A2 2 0 0 0 2 8v16a2 2 0 0 0 2 2h24a2 2 0 0 0 2-2V10a2 2 0 0 0-2-2H15.125a2 2 0 0 1-1.282-.463"/><path fill="#b2ebf2" d="M13.98 10c-1.098 0-1.98.994-1.98 2.229V16h2v-4h16v14H14v-4h-2v3.772c0 1.234.882 2.228 1.98 2.228h16.039c1.098 0 1.98-.994 1.98-2.228V12.229C32 10.994 31.118 10 30.02 10zM22 14v4H12v2h10v4l5.12-5z"/></svg>
